X:1
T:Lagos (Stebbins), 76.76 D
T:George Coles Stebbins, 1896
T:Lagos (Stebbins), 76.76 D
T:Public Domain
C:George Coles Stebbins, 1896
Z:Public Domain
%%score ( 1 2 ) ( 3 4 )
L:1/8
M:6/8
K:Bb
V:1 treble 
V:2 treble 
V:3 bass 
V:4 bass 
V:1
 [DF]2 [DF] ([B,D][CE])[DF] | [DB]2 [DB] [DF]3 | [CE]2 [CE] ([A,C][B,D])[CE] | [^CG]3 [DF]2 z | %4
 [DF]2 [DF] ([B,D][CE])[DF] | [DB]2 [DB] (F2 G) | [FA]2 [FA] (cA)[CG] | [=EG]3 F2 z | %8
 [EA]2 [DB] (cA)[EF] | [DB]2 [B,D] [DF]3 | [DB]2 [DB] (BA)[_EB] | [Fd]3 [Fc]2 z | %12
 [DF]2 [DF] ([B,D][CE])[DF] | [DB]2 [DB] [DF]3 | [EG]2 [EG] ([DF][B,D])[DB] | [EA]3 [DB]3 |] %16
V:2
 x6 | x6 | x6 | x6 | x6 | x3 D3 | x3 F2 x | x3 F2 x | x3 E2 x | x6 | x3 =E2 x | x6 | x6 | x6 | x6 | %15
 x6 |] %16
V:3
 [B,,B,]2 [B,,B,] [B,,F,]2 [B,,F,] | [B,,F,]2 [B,,F,] [B,,B,]3 | [F,A,]2 [F,A,] F,2 F, | %3
 [B,,=E,]3 [B,,F,]2 z | [B,,B,]2 [B,,B,] [B,,F,]2 [B,,F,] | [B,,F,]2 [B,,F,] (B,2 D) | %6
 [C,C]2 [C,C] (A,C)[C,A,] | [C,B,]3 [F,A,]2 z | [F,C]2 [F,B,] (A,C)[F,A,] | %9
 [B,,B,]2 [B,,F,] [B,,B,]3 | G,2 G, [C,G,]2 [C,C] | [F,B,]3 [F,A,]2 z | B,2 B, [B,,F,]2 [B,,F,] | %13
 [B,,F,]2 [B,,F,] [B,,B,]3 | [E,B,]2 [E,B,] (B,F,)[F,B,] | [F,C]3 [B,,B,]3 |] %16
V:4
 x6 | x6 | x3 F,2 F, | x6 | x6 | x3 B,,3 | x3 C,2 x | x6 | x3 F,2 x | x6 | G,2 G, x3 | x6 | %12
 B,2 B, x3 | x6 | x3 F,2 x | x6 |] %16

